communes/161.svg

<?xml version="1.0" encoding="UTF-8" standalone="no"?>
<svg
   xmlns:dc="http://purl.org/dc/elements/1.1/"
   xmlns:cc="http://creativecommons.org/ns#"
   xmlns:rdf="http://www.w3.org/1999/02/22-rdf-syntax-ns#"
   xmlns:svg="http://www.w3.org/2000/svg"
   xmlns="http://www.w3.org/2000/svg"
   xmlns:sodipodi="http://sodipodi.sourceforge.net/DTD/sodipodi-0.dtd"
   xmlns:inkscape="http://www.inkscape.org/namespaces/inkscape"
   version="1.0"
   width="215.00432"
   height="251.83728"
   id="svg2780"
   sodipodi:docname="161.svg">
  <metadata
     id="metadata12">
    <rdf:RDF>
      <cc:Work
         rdf:about="">
        <dc:format>image/svg+xml</dc:format>
        <dc:type
           rdf:resource="http://purl.org/dc/dcmitype/StillImage" />
      </cc:Work>
    </rdf:RDF>
  </metadata>
  <sodipodi:namedview
     pagecolor="#ffffff"
     bordercolor="#666666"
     borderopacity="1"
     objecttolerance="10"
     gridtolerance="10"
     guidetolerance="10"
     inkscape:pageopacity="0"
     inkscape:pageshadow="2"
     inkscape:window-width="640"
     inkscape:window-height="480"
     id="namedview10" />
  <defs
     id="defs2782" />
  <g
     transform="translate(-31.151557,-809.59567)"
     id="layer1">
    <path
       d="M 32.151557,810.59568 L 36.024347,973.28043 C 38.790637,1089.4838 238.51678,1089.4838 241.28307,973.28043 L 245.15588,810.59568 L 32.151557,810.59568 z"
       id="path4270"
       style="fill:#2469c0;fill-opacity:1;fill-rule:evenodd;stroke:none;stroke-width:2;stroke-linecap:butt;stroke-miterlimit:4;stroke-dashoffset:0;stroke-opacity:1" />
    <path
       d="M 32.151557,810.58462 L 36.012726,973.27631 C 38.359412,1071.8539 182.43883,1086.8059 227.78411,1018.1326 L 32.151557,810.58462 z"
       id="path6609"
       style="fill:#ffffff;fill-opacity:1;fill-rule:evenodd;stroke:#000000;stroke-width:1pt;stroke-linecap:butt;stroke-linejoin:miter;stroke-opacity:1" />
    <path
       d="M 33.65625,69.59375 L 35.1875,134.25 L 149.625,255.625 C 166.14591,254.2448 182.26563,249.75754 196.28125,242.125 L 33.65625,69.59375 z"
       transform="translate(0,804.33069)"
       id="path6611"
       style="fill:#c43323;fill-opacity:1;fill-rule:evenodd;stroke:#000000;stroke-width:1pt;stroke-linecap:butt;stroke-linejoin:miter;stroke-opacity:1" />
    <path
       d="M 181.62309,124.07598 L 171.27422,91.386486 L 137.78985,98.768852 L 160.92535,73.461716 L 137.78985,48.154582 L 171.27422,55.536945 L 181.62309,22.847446 L 191.97196,55.536945 L 225.45633,48.15458 L 202.32084,73.461716 L 225.45634,98.768849 L 191.97196,91.386486 L 181.62309,124.07598 z"
       transform="translate(-1.1435698,804.27045)"
       id="path3975"
       style="fill:#efd905;fill-opacity:1;fill-rule:evenodd;stroke:#000000;stroke-width:0.99921262;stroke-linecap:butt;stroke-linejoin:miter;stroke-miterlimit:4;stroke-dasharray:none;stroke-opacity:1" />
    <path
       d="M 32.151557,810.59568 L 36.024347,973.28043 C 38.790637,1089.4838 238.51678,1089.4838 241.28307,973.28043 L 245.15588,810.59568 L 32.151557,810.59568 z"
       id="path6617"
       style="fill:none;fill-opacity:1;fill-rule:evenodd;stroke:#000000;stroke-width:2;stroke-linecap:butt;stroke-miterlimit:4;stroke-dashoffset:0;stroke-opacity:1" />
  </g>
</svg>

<?xml version="1.0" encoding="UTF-8"?>
<svg version="1.0" viewBox="0 0 215 251.84" xmlns="http://www.w3.org/2000/svg" xmlns:cc="http://creativecommons.org/ns#" xmlns:dc="http://purl.org/dc/elements/1.1/" xmlns:rdf="http://www.w3.org/1999/02/22-rdf-syntax-ns#">
<metadata>
<rdf:RDF>
<cc:Work rdf:about="">
<dc:format>image/svg+xml</dc:format>
<dc:type rdf:resource="http://purl.org/dc/dcmitype/StillImage"/>
</cc:Work>
</rdf:RDF>
</metadata>
<g transform="translate(-31.152 -809.6)">
<path d="m32.152 810.6 3.8728 162.68c2.7663 116.2 202.49 116.2 205.26 0l3.8728-162.68h-213z" fill="#2469c0" fill-rule="evenodd"/>
<path d="m32.152 810.58 3.8612 162.69c2.3467 98.578 146.43 113.53 191.77 44.856l-195.63-207.55z" fill="#fff" fill-rule="evenodd" stroke="#000" stroke-width="1pt"/>
<path transform="translate(0 804.33)" d="m33.656 69.594 1.5312 64.656 114.44 121.38c16.521-1.3802 32.641-5.8675 46.656-13.5l-162.62-172.53z" fill="#c43323" fill-rule="evenodd" stroke="#000" stroke-width="1pt"/>
<path transform="translate(-1.1436 804.27)" d="m181.62 124.08-10.349-32.689-33.484 7.3824 23.136-25.307-23.136-25.307 33.484 7.3824 10.349-32.689 10.349 32.689 33.484-7.3824-23.135 25.307 23.136 25.307-33.484-7.3824-10.349 32.689z" fill="#efd905" fill-rule="evenodd" stroke="#000" stroke-width=".99921"/>
<path d="m32.152 810.6 3.8728 162.68c2.7663 116.2 202.49 116.2 205.26 0l3.8728-162.68h-213z" fill="none" stroke="#000" stroke-width="2"/>
</g>
</svg>
